ncols         20
nrows         15
xllcorner     78.4700
yllcorner     30.3600
cellsize      0.001
NODATA_value  -9999
224 222 220 218 216 214 212 210 212 214 216 218 220 222 224 226 228 230 232 234
220 218 216 214 212 210 208 206 208 210 212 214 216 218 220 222 224 226 228 230
216 214 212 210 208 206 204 202 204 206 208 210 212 214 216 218 220 222 224 226
212 210 208 206 204 202 200 198 200 202 204 206 208 210 212 214 216 218 220 222
208 206 204 202 200 198 196 194 196 198 200 202 204 206 208 210 212 214 216 218
204 202 200 198 196 194 192 190 192 194 196 198 200 202 204 206 208 210 212 214
200 198 196 194 192 190 188 186 188 190 192 194 196 198 200 202 204 206 208 210
196 194 192 190 188 186 184 182 184 186 188 190 192 194 196 198 200 202 204 206
192 190 188 186 184 182 180 178 180 182 184 186 188 190 192 194 196 198 200 202
188 186 184 182 180 178 176 174 176 178 180 182 184 186 188 190 192 194 196 198
184 182 180 178 176 174 172 170 172 174 176 178 180 182 184 186 188 190 192 194
180 178 176 174 172 170 168 166 168 170 172 174 176 178 180 182 184 186 188 190
176 174 172 170 168 166 164 162 164 166 168 170 172 174 176 178 180 182 184 186
172 170 168 166 164 162 160 158 160 162 164 166 168 170 172 174 176 178 180 182
168 166 164 162 160 158 156 154 156 158 160 162 164 166 168 170 172 174 176 178
